X:5
T:Saint, Saint, Saint - A102
T:(messe "Vers toi Seigneur")
C:L. Guillou
M:2/4
L:1/4
K:G
"Sol"G"Re"F|"Do"EE/E/|"Sol"D2|D/D/ "Do"E/"Re"F/|"Sol"G2|"Sol"G/G/ "Mim"B/G/|"Do"E/E/ "Mim"E/E/|"Lam"AA/G/|"Re"F/E/D|
"Sol"G"Re"F|"Do"E2|"Lam"E/D/ "Re"E/F/|"Sol"G2||"Sol"B/B/ B/B/|B/A/"Mim"G|"Do"[Ec]/[Ec]/ "Sol"[Fc]/[GB]/|"Re"A2|"Sol"G"Re"F|"Do"E2|"Lam"E/D/ "Re"E/F/|"Sol"G2||
